assets/img/braze_icons/git-pull-request.svg

<svg fill="none" height="24" viewBox="0 0 24 24" width="24" xmlns="http://www.w3.org/2000/svg"><g clip-rule="evenodd" fill="#801ed7" fill-rule="evenodd"><path d="m7 9.87398c1.72523-.44404 3-2.01014 3-3.87398 0-2.20914-1.79086-4-4-4s-4 1.79086-4 4c0 1.86384 1.27477 3.42994 3 3.87398v11.12602c0 .5523.44772 1 1 1s1-.4477 1-1z"/><path d="m14 18c0-1.8638 1.2748-3.4299 3-3.874v-6.126c0-.26522-.1054-.51957-.2929-.70711-.1875-.18753-.4419-.29289-.7071-.29289h-3c-.5523 0-1-.44772-1-1s.4477-1 1-1h3c.7956 0 1.5587.31607 2.1213.87868s.8787 1.32567.8787 2.12132v6.126c1.7252.4441 3 2.0102 3 3.874 0 2.2091-1.7909 4-4 4s-4-1.7909-4-4z"/></g></svg>

<svg width="24" height="24" viewBox="0 0 24 24" fill="none" xmlns="http://www.w3.org/2000/svg">
<path fill-rule="evenodd" clip-rule="evenodd" d="M7 9.87398C8.72523 9.42994 10 7.86384 10 6C10 3.79086 8.20914 2 6 2C3.79086 2 2 3.79086 2 6C2 7.86384 3.27477 9.42994 5 9.87398V21C5 21.5523 5.44772 22 6 22C6.55228 22 7 21.5523 7 21V9.87398Z" fill="#801ED7"/>
<path fill-rule="evenodd" clip-rule="evenodd" d="M14 18C14 16.1362 15.2748 14.5701 17 14.126V8C17 7.73478 16.8946 7.48043 16.7071 7.29289C16.5196 7.10536 16.2652 7 16 7H13C12.4477 7 12 6.55228 12 6C12 5.44772 12.4477 5 13 5H16C16.7956 5 17.5587 5.31607 18.1213 5.87868C18.6839 6.44129 19 7.20435 19 8V14.126C20.7252 14.5701 22 16.1362 22 18C22 20.2091 20.2091 22 18 22C15.7909 22 14 20.2091 14 18Z" fill="#801ED7"/>
</svg>
